src/images/crypto-icon-svg/xmr.svg

<svg xmlns="http://www.w3.org/2000/svg" width="32" height="32" viewBox="0 0 32 32">
  <g fill="none" fill-rule="evenodd">
    <circle cx="16" cy="16" r="16" fill="#F60"/>
    <path fill="#FFF" fill-rule="nonzero" d="M15.9706667,5.23466667 C21.9546667,5.23466667 26.7946667,10.0746667 26.7946667,16.0586667 C26.7946667,17.2613333 26.5893333,18.4053333 26.2373333,19.4906667 L23.0106667,19.4906667 L23.0106667,10.3973333 L15.9706667,17.4373333 L8.93066667,10.3973333 L8.93066667,19.4906667 L5.704,19.4906667 C5.352,18.4053333 5.14666667,17.2613333 5.14666667,16.0586667 C5.14666667,10.0746667 9.98666667,5.23466667 15.9706667,5.23466667 Z M14.3573333,19.0213333 L16,20.6346667 L17.6133333,19.0213333 L20.664,15.9413333 L20.664,21.6613333 L20.8986667,21.6613333 L23.0106667,21.6613333 L25.2106667,21.6613333 C23.3333333,24.7706667 19.872,26.8533333 15.9706667,26.8533333 C12.0693333,26.8533333 8.63733333,24.7706667 6.73066667,21.6613333 L8.93066667,21.6613333 L10.104,21.6613333 L11.2773333,21.6613333 L11.2773333,15.9413333 L14.3573333,19.0213333 Z"/>
  </g>
</svg>

<svg xmlns="http://www.w3.org/2000/svg" width="32" height="32"><g fill="none" fill-rule="evenodd"><circle cx="16" cy="16" r="16" fill="#F60"/><path fill="#FFF" fill-rule="nonzero" d="M15.97 5.235c5.985 0 10.825 4.84 10.825 10.824a11.07 11.07 0 0 1-.558 3.432h-3.226v-9.094l-7.04 7.04-7.04-7.04v9.094H5.704a11.07 11.07 0 0 1-.557-3.432c0-5.984 4.84-10.824 10.824-10.824zM14.358 19.02L16 20.635l1.613-1.614 3.051-3.08v5.72H25.211a10.806 10.806 0 0 1-9.24 5.192c-3.902 0-7.334-2.082-9.24-5.192h4.546v-5.72l3.08 3.08z"/></g></svg>
